static/assets/img/icons/theme/home/clock.svg

<svg height="24" viewBox="0 0 24 24" width="24" xmlns="http://www.w3.org/2000/svg"><g fill="none" fill-rule="evenodd"><path d="m0 0h24v24h-24z" opacity="0"/><g fill="#000"><path d="m12 22c-4.97056275 0-9-4.0294373-9-9 0-4.97056275 4.02943725-9 9-9 4.9705627 0 9 4.02943725 9 9 0 4.9705627-4.0294373 9-9 9z" opacity=".3"/><path d="m11.9630156 7.5h.0844906c.2568757 0 .4719585.19464724.4975186.45024814l.4549752 4.54975186 3.2480695 1.8560397c.1557875.0890214.2519305.2546931.2519305.4341216v.2098387c0 .2109164-.1709815.3818979-.3818979.3818979-.0339439 0-.0677362-.0045254-.100484-.0134566l-4.6189569-1.2597155c-.2313788-.0631033-.3853626-.2816072-.3669686-.5207302l.4327957-5.62634385c.0200384-.26049858.2372591-.46165175.4985273-.46165175z"/></g></g></svg>

<svg width="24px" height="24px" viewBox="0 0 24 24" version="1.1" xmlns="http://www.w3.org/2000/svg" xmlns:xlink="http://www.w3.org/1999/xlink">
    <title>Icon For Clock</title>
    <g stroke="none" stroke-width="1" fill="none" fill-rule="evenodd">
        <rect opacity="0" x="0" y="0" width="24" height="24"></rect>
        <path d="M12,22 C7.02943725,22 3,17.9705627 3,13 C3,8.02943725 7.02943725,4 12,4 C16.9705627,4 21,8.02943725 21,13 C21,17.9705627 16.9705627,22 12,22 Z" fill="#000000" opacity="0.3"></path>
        <path d="M11.9630156,7.5 L12.0475062,7.5 C12.3043819,7.5 12.5194647,7.69464724 12.5450248,7.95024814 L13,12.5 L16.2480695,14.3560397 C16.403857,14.4450611 16.5,14.6107328 16.5,14.7901613 L16.5,15 C16.5,15.2109164 16.3290185,15.3818979 16.1181021,15.3818979 C16.0841582,15.3818979 16.0503659,15.3773725 16.0176181,15.3684413 L11.3986612,14.1087258 C11.1672824,14.0456225 11.0132986,13.8271186 11.0316926,13.5879956 L11.4644883,7.96165175 C11.4845267,7.70115317 11.7017474,7.5 11.9630156,7.5 Z" fill="#000000"></path>
    </g>
</svg>
